src/public/img/icon_tab_contact.svg

<?xml version="1.0" encoding="UTF-8"?>
<svg width="323px" height="378px" viewBox="0 0 323 378" version="1.1" xmlns="http://www.w3.org/2000/svg" xmlns:xlink="http://www.w3.org/1999/xlink">
    <!-- Generator: Sketch 52.1 (67048) - http://www.bohemiancoding.com/sketch -->
    <title>Group</title>
    <desc>Created with Sketch.</desc>
    <g id="Page-1" stroke="none" stroke-width="1" fill="none" fill-rule="evenodd">
        <g id="Contacts" transform="translate(-93.000000, -76.000000)" stroke="#000000">
            <g id="Group" transform="translate(97.000000, 114.000000)">
                <path d="M0.5,335.5 L34,335.5 L34,243.138236 C34,240.412547 34.5973456,237.719974 35.75,235.25 L35.8485795,235.038758 C36.9449296,232.689437 38.3402924,230.491649 40,228.5 L41.1209325,227.154881 C42.0402042,226.051755 42.9831297,224.968557 43.9490531,223.906042 L47.5,220 L51.3506285,216.445574 C53.1141379,214.817719 55.0031007,213.331266 57,212 L59.4057087,210.396194 C59.8018978,210.132068 60.1961955,209.865116 60.5885713,209.595357 L76,199 L85,193.5 L92.3637194,190.34412 C94.4539649,189.448301 96.5741602,188.624044 98.7206067,187.872788 L100.723316,187.171839 C103.905736,186.057993 107.142452,185.105811 110.421063,184.318945 L111.75,184 C115.902185,183.003476 120.157386,182.5 124.42748,182.5 L136.5,182.5 L179,182.5 L188.5,182.5 L189.779847,182.5 C193.241407,182.5 196.684427,183.005328 200,184 L202.83408,184.850224 C204.277842,185.283353 205.711627,185.749069 207.134334,186.247017 L212.503823,188.126338 C214.16765,188.708678 215.846584,189.24692 217.538866,189.740503 L221.521898,190.90222 C225.162992,191.964206 228.676683,193.422176 232,195.25 L235.647673,197.25622 C236.549171,197.752044 237.442963,198.261751 238.32873,198.785158 L248,204.5 L253.991098,209.569391 C254.330362,209.85646 254.671536,210.141265 255.014597,210.423786 L258.75,213.5 C261.576731,215.827896 264.172104,218.423269 266.5,221.25 L269.815203,225.275604 C269.938401,225.425201 270.062033,225.57444 270.186099,225.723318 L274.850766,231.320919 C276.609547,233.431457 278.088205,235.760439 279.25,238.25 L279.25,238.25 C280.402654,240.719974 281,243.412547 281,246.138236 L281,335.5 L314.5,335.5 L314.5,236.885165 C314.5,233.327739 313.821195,229.802987 312.5,226.5 L312.5,226.5 C311.171983,223.179957 309.430005,220.040915 307.315409,217.157376 L305,214 L302.531827,210.772389 C299.846896,207.261326 296.932136,203.932136 293.806722,200.806722 L292,199 L288.525989,195.236489 C286.84258,193.412795 285.091861,191.652404 283.27747,189.958972 L282.25,189 C279.753306,186.669752 277.090451,184.524159 274.282507,182.580197 L272,181 L268.438738,178.201866 C266.148506,176.402398 263.747535,174.748521 261.25,173.25 L261.25,173.25 C258.753149,171.751889 256.153113,170.43289 253.469491,169.302944 L249.295216,167.545354 C248.431781,167.181803 247.573498,166.806136 246.720621,166.418464 L245.25,165.75 C243.417186,164.916903 241.612933,164.022349 239.840307,163.067858 L239.25,162.75 C237.087353,161.585498 234.828407,160.609469 232.498215,159.832738 L230.91035,159.30345 C229.303709,158.767903 227.683723,158.273256 226.05196,157.819989 L224,157.25 C221.001829,156.417175 217.964357,155.732932 214.898681,155.199771 L209.241666,154.215942 C208.413922,154.071986 207.588024,153.917605 206.76417,153.752834 L200.000352,152.40007 C198.666923,152.133385 197.328192,151.893925 195.984996,151.681841 L193.25,151.25 C190.088192,150.750767 186.892132,150.5 183.691154,150.5 L157.5,150.5 L117.75,150.5 C114.595241,150.5 111.452389,150.886903 108.391823,151.652044 L103.881875,152.779531 C103.29397,152.926507 102.704742,153.068136 102.114263,153.204401 L92.5096516,155.42085 C90.8368279,155.806886 89.1742228,156.235936 87.5234894,156.707574 L80.5556463,158.698387 C77.5202513,159.565642 74.5276258,160.576146 71.5878242,161.726504 L65.9856475,163.91866 C64.9952788,164.306195 64.0111553,164.709505 63.0336525,165.128435 L59.0400972,166.839958 C55.6825544,168.278905 52.4063784,169.900743 49.2263014,171.698177 L42.5,175.5 L38.2197059,178.269602 C35.408343,180.088719 32.690126,182.047899 30.0753289,184.139737 L26.4634473,187.029242 C24.8215575,188.342754 23.2215039,189.707724 21.6656727,191.122116 L17.2278468,195.156503 C14.411579,197.716746 11.743775,200.435686 9.23745669,203.300049 L6,207 L6,207 C2.39189441,213.560192 0.5,220.925754 0.5,228.412712 L0.5,335.5 Z" id="Path-5" stroke-width="8" fill="#000000"></path>
                <circle id="Oval" stroke-width="38" cx="152" cy="47" r="66"></circle>
            </g>
        </g>
    </g>
</svg>

<?xml version="1.0" encoding="UTF-8" standalone="no"?>
<svg
   xmlns:svg="http://www.w3.org/2000/svg"
   xmlns="http://www.w3.org/2000/svg"
   width="20"
   height="20"
   viewBox="0 0 20 20">
 
  <g
     id="Page-1"
     style="fill:none;fill-rule:evenodd;stroke:none;stroke-width:1"
     transform="matrix(0.04241649,0,0,0.04241649,3.2764034,1.6350362)">
    <g
       transform="translate(-93,-76)"
       id="Contacts"
       style="stroke:currentcolor">
      <g
         transform="translate(97,114)"
         id="Group">
        <path
           id="Path-5"
           d="M 0.5,335.5 H 34 v -92.36176 c 0,-2.72569 0.597346,-5.41827 1.75,-7.88824 l 0.09858,-0.21124 C 36.94493,232.68944 38.340292,230.49165 40,228.5 l 1.120933,-1.34512 c 0.919271,-1.10312 1.862197,-2.18632 2.82812,-3.24884 L 47.5,220 51.350628,216.44557 C 53.114138,214.81772 55.003101,213.33127 57,212 l 2.405709,-1.60381 c 0.396189,-0.26412 0.790487,-0.53107 1.182862,-0.80083 L 76,199 l 9,-5.5 7.363719,-3.15588 c 2.090246,-0.89582 4.210441,-1.72008 6.356888,-2.47133 l 2.002713,-0.70095 c 3.18242,-1.11385 6.41913,-2.06603 9.69774,-2.85289 L 111.75,184 c 4.15219,-0.99652 8.40739,-1.5 12.67748,-1.5 H 136.5 179 h 9.5 1.27985 c 3.46156,0 6.90458,0.50533 10.22015,1.5 l 2.83408,0.85022 c 1.44376,0.43313 2.87755,0.89885 4.30025,1.3968 l 5.36949,1.87932 c 1.66383,0.58234 3.34276,1.12058 5.03505,1.61416 l 3.98303,1.16172 c 3.64109,1.06199 7.15478,2.51996 10.4781,4.34778 l 3.64767,2.00622 c 0.9015,0.49582 1.79529,1.00553 2.68106,1.52894 L 248,204.5 l 5.9911,5.06939 c 0.33926,0.28707 0.68044,0.57187 1.0235,0.8544 L 258.75,213.5 c 2.82673,2.3279 5.4221,4.92327 7.75,7.75 l 3.3152,4.0256 c 0.1232,0.1496 0.24683,0.29884 0.3709,0.44772 l 4.66467,5.5976 c 1.75878,2.11054 3.23744,4.43952 4.39923,6.92908 v 0 c 1.15265,2.46997 1.75,5.16255 1.75,7.88824 V 335.5 h 33.5 v -98.61484 c 0,-3.55742 -0.67881,-7.08217 -2,-10.38516 v 0 c -1.32802,-3.32004 -3.07,-6.45909 -5.18459,-9.34262 L 305,214 l -2.46817,-3.22761 c -2.68493,-3.51106 -5.59969,-6.84025 -8.72511,-9.96567 L 292,199 l -3.47401,-3.76351 c -1.68341,-1.8237 -3.43413,-3.58409 -5.24852,-5.27752 L 282.25,189 c -2.49669,-2.33025 -5.15955,-4.47584 -7.96749,-6.4198 L 272,181 l -3.56126,-2.79813 c -2.29023,-1.79947 -4.6912,-3.45335 -7.18874,-4.95187 v 0 c -2.49685,-1.49811 -5.09689,-2.81711 -7.78051,-3.94706 l -4.17427,-1.75759 c -0.86344,-0.36355 -1.72172,-0.73921 -2.5746,-1.12689 L 245.25,165.75 c -1.83281,-0.8331 -3.63707,-1.72765 -5.40969,-2.68214 L 239.25,162.75 c -2.16265,-1.1645 -4.42159,-2.14053 -6.75179,-2.91726 l -1.58786,-0.52929 c -1.60664,-0.53555 -3.22663,-1.03019 -4.85839,-1.48346 L 224,157.25 c -2.99817,-0.83283 -6.03564,-1.51707 -9.10132,-2.05023 l -5.65701,-0.98383 c -0.82775,-0.14395 -1.65365,-0.29834 -2.4775,-0.46311 l -6.76382,-1.35276 c -1.33343,-0.26669 -2.67216,-0.50615 -4.01535,-0.71823 L 193.25,151.25 c -3.16181,-0.49923 -6.35787,-0.75 -9.55885,-0.75 H 157.5 117.75 c -3.15476,0 -6.29761,0.3869 -9.35818,1.15204 l -4.50995,1.12749 c -0.5879,0.14698 -1.17713,0.28861 -1.76761,0.42487 l -9.604608,2.21645 c -1.672824,0.38604 -3.335429,0.81509 -4.986163,1.28672 l -6.967843,1.99082 c -3.035395,0.86725 -6.02802,1.87776 -8.967822,3.02811 l -5.602177,2.19216 c -0.990368,0.38753 -1.974492,0.79084 -2.951994,1.20977 l -3.993556,1.71153 c -3.357543,1.43894 -6.633719,3.06078 -9.813796,4.85822 L 42.5,175.5 l -4.280294,2.7696 c -2.811363,1.81912 -5.52958,3.7783 -8.144377,5.87014 l -3.611882,2.8895 c -1.64189,1.31351 -3.241943,2.67848 -4.797774,4.09288 l -4.437826,4.03438 c -2.816268,2.56025 -5.484072,5.27919 -7.9903903,8.14355 L 6,207 v 0 c -3.6081056,6.56019 -5.5,13.92575 -5.5,21.41271 z"
           inkscape:connector-curvature="0"
           style="fill:currentcolor;stroke-width:8" />
        <circle
           r="66"
           cy="47"
           cx="152"
           id="Oval"
           style="stroke-width:38" />
      </g>
    </g>
  </g>
</svg>
